X:1
T:Drops of Brandy
C:traditionell 
F:http://simonwascher.info
Z:abc transcription Simon Wascher
M:9/8
L:1/8
R:Jig
K:G
d2c BGB BGB | d2c BGB cBA | d2c GBG GBG | cBcA2B cBA :|
GBd gdB GdB | GBd gDB cBA | GBd gdB gdB | cBcA2B cBA :|
%%wordsfont Times-Italic 11pt
W:aus Simon Waschers TradArchiv
